src/svg/dropbox.svg

<svg height="1000" width="1000" xmlns="http://www.w3.org/2000/svg"><path d="M224.316 394.57l275.652 170.19 -190.836 159.03 -273.42 -178.002zm550.188 309.69v60.264l-273.42 163.494v.558l-.558 -.558 -.558 .558v-.558l-272.862 -163.494v-60.264l82.026 53.568 190.836 -158.472v-1.116l.558 .558 .558 -.558v1.116l191.394 158.472zm-465.372 -638.352l190.836 159.03 -275.652 169.632 -188.604 -150.66zm466.488 328.662l188.604 151.218 -272.862 178.002 -191.394 -159.03zm-84.258 -328.662l272.862 178.002 -188.604 150.66 -275.652 -169.632z"/></svg>

<svg height="1000" width="1000" xmlns="http://www.w3.org/2000/svg"><path d="M224.3 394.5L500 564.7 309.2 723.8 35.7 545.8zm550.3 309.7v60.3L501.1 928v.6l-.5 -.6 -.6 .6v-.6L227.1 764.5v-60.3l82.1 53.6L500 599.3v-1.1l.6 .6 .5 -.6v1.1l191.4 158.5zM309.2 65.8L500 224.9 224.3 394.5 35.7 243.9zm466.5 328.7l188.6 151.3 -272.9 178L500 564.7zM691.4 65.8l272.9 178.1L775.7 394.5 500 224.9z"/></svg>
